client/filepreviewer/pdfjs/web/images/toolbarButton-download.svg

<svg width="16" height="16" viewBox="0 0 16 16" fill="none" xmlns="http://www.w3.org/2000/svg">
<path d="M9.79407 7.31811H7.86307C7.41807 7.31811 7.19407 7.85711 7.50907 8.17211L10.1911 10.8541C10.3861 11.0491 10.7031 11.0491 10.8981 10.8541L13.5801 8.17211C13.8951 7.85711 13.6721 7.31811 13.2261 7.31811H11.2941V4.38211H11.2961V3.13211H11.2941V2.30811H9.79407V3.13211H9.79107V4.38211H9.79507V7.31811H9.79407Z" fill="black"/>
<path d="M14 3.13208H12.796V4.38208H14C14.345 4.38208 14.625 4.66208 14.625 5.00708V13.0071C14.625 13.3521 14.345 13.6321 14 13.6321H2C1.655 13.6321 1.375 13.3521 1.375 13.0071V3.00708C1.375 2.66208 1.655 2.38208 2 2.38208H5.643C5.82 2.38208 5.989 2.45808 6.108 2.58908L7.536 4.17508C7.654 4.30708 7.823 4.38208 8 4.38208H8.291V3.13208H8.278L7.036 1.75208C6.681 1.35808 6.173 1.13208 5.642 1.13208H2C0.966 1.13208 0.125 1.97308 0.125 3.00708V13.0071C0.125 14.0411 0.966 14.8821 2 14.8821H14C15.034 14.8821 15.875 14.0411 15.875 13.0071V5.00708C15.875 3.97308 15.034 3.13208 14 3.13208Z" fill="black"/>
</svg>

<svg xmlns="http://www.w3.org/2000/svg" width="16" height="16" fill="none" viewBox="0 0 16 16"><path fill="#000" d="M9.794 7.318h-1.93a.5.5 0 0 0-.355.854l2.682 2.682a.5.5 0 0 0 .707 0l2.682-2.682a.5.5 0 0 0-.354-.854h-1.932V4.382h.002v-1.25h-.002v-.824h-1.5v.824h-.003v1.25h.004v2.936"/><path fill="#000" d="M14 3.132h-1.204v1.25H14c.345 0 .625.28.625.625v8c0 .345-.28.625-.625.625H2a.625.625 0 0 1-.625-.625v-10c0-.345.28-.625.625-.625h3.643a.63.63 0 0 1 .465.207l1.428 1.586A.62.62 0 0 0 8 4.382h.291v-1.25h-.013l-1.242-1.38a1.88 1.88 0 0 0-1.394-.62H2A1.877 1.877 0 0 0 .125 3.007v10c0 1.034.841 1.875 1.875 1.875h12a1.877 1.877 0 0 0 1.875-1.875v-8A1.877 1.877 0 0 0 14 3.132"/></svg>
